arkscan/icons/bittrex.svg

<svg viewBox="0 0 20 20" fill="none" xmlns="http://www.w3.org/2000/svg">
  <path
    d="M4.63984 0V3.12H6.43984V1.96H17.3598V13.68H6.43984V7.36H4.63984V15.6H19.1598V0H4.63984ZM0.839844 4.4V20H15.3598V16.76H13.5598V18.04H2.67984V6.36H13.5998V12.52H15.3998V4.4H0.839844Z"
    fill="#1468C1" />
</svg>

<svg viewBox="0 0 20 20" fill="none" xmlns="http://www.w3.org/2000/svg"><path d="M4.64 0v3.12h1.8V1.96h10.92v11.72H6.44V7.36h-1.8v8.24h14.52V0H4.64ZM.84 4.4V20h14.52v-3.24h-1.8v1.28H2.68V6.36H13.6v6.16h1.8V4.4H.84Z" fill="#1468C1"/></svg>
